X:1
T:Title
%%score { ( 1 3 ) | ( 2 4 ) }
L:1/8
M:3/4
K:C
V:1 treble nm="Grand Piano"
V:3 treble 
V:2 bass 
V:4 bass 
V:1
 z2 z2[Q:1/4=100] [CE][DF] | [EG]4 [Ec]2 | [EG]3 [EG] [FA]>[EG] | [B,DF]4 [B,DG]2 | %4
 [G,CE]4 [CEG]2 | F2- [Fc]2 B2 | [^Fc]4 [CFA]2 | [B,DG]4 [B,FG]2 | [EG]4 [EG]2 | %9
 [EG]2 [FA]2 [FB]2 | [Ec]4 [EG]2 | [EG]4 [CE]2 | [CA]4 [FB]2 | c2 G2 [G,CE]2 | %14
[M:7/8] B,2- [B,G]3 [G,B,F]2 |[M:2/4] [G,CE]4 |] %16
V:2
 z2 z2 [C,G,]2 | [C,C]4 [C,G,]2 | [C,C]3 [C,C] [C,C]>[C,C] | G,,4 G,,2 | C,4 C,2 | %5
 z2 A,2 [F,A,F]2 | [D,A,]4 D,2 | G,4 G,,2 | [C,C]4 [C,C]2 | [C,C]4 [C,A,]2 | [C,G,]4 [C,C]2 | %11
 [C,C]4 [C,_B,]2 | [F,A,]4 [D,G,]2 | G,2 z2 z2 |[M:7/8] z2 D,3 G,,2 |[M:2/4] C,4 |] %16
V:3
 x6 | x6 | x6 | x6 | x6 | [CA]2 z2 z2 | x6 | x6 | x6 | x6 | x6 | x6 | x6 | E4 z2 | %14
[M:7/8] [G,D]2 z z z z2 |[M:2/4] x4 |] %16
V:4
 x6 | x6 | x6 | x6 | x6 | F,4 z2 | x6 | x6 | x6 | x6 | x6 | x6 | x6 | C,2- [C,C]2 C,2 | %14
[M:7/8] G,,-G,,- G,,3 z2 |[M:2/4] x4 |] %16

